Adwaita++-Light/panel/24/qtpass-tray.svg

<svg height="24" width="24" xmlns="http://www.w3.org/2000/svg">
  <g fill="#444">
    <path d="m12.000001 4c-1.26666 0-2.3561397.557-3.0308597 1.4004-.67472.84338-.96914 1.91442-.96914 2.9996v6.6h1.9999997v-6.6c0-.71482.20558-1.34378.53086-1.7504.32528-.4066.7358-.6496 1.46914-.6496s1.14386.243 1.46914.6496c.32528.40662.53086 1.03558.53086 1.7504v6.6h2v-6.6c0-1.08518-.29442-2.15622-.96914-2.9996-.67472-.8434-1.7642-1.4004-3.03086-1.4004z" opacity=".3"/>
    <path d="m9.3587317 9.0039062c-1.9258014-.087456-3.2581206 1.4819298-3.3532802 3.1816408-.049403.882426.2347857 1.799905.9421955 2.539062l5.052353 5.275391 5.052354-5.275391c.707406-.739148.991594-1.656622.942195-2.539062-.09516-1.6997-1.427479-3.2691008-3.35328-3.1816408-1.096126.04958-2.092147.680055-2.641269 1.6718748-.549125-.9918283-1.545152-1.6222956-2.6412683-1.6718748zm1.6425023 2.9960938h.998766.998767v2h-.477926l.977309 2h-1.49815-1.498149l.977309-2h-.477926z"/>
  </g>
</svg>

<svg xmlns="http://www.w3.org/2000/svg" width="24" height="24" version="1.1">
 <defs>
  <style id="current-color-scheme" type="text/css">
   .ColorScheme-Text { color:#444444; } .ColorScheme-Highlight { color:#4285f4; }
  </style>
 </defs>
 <path style="opacity:0.3;fill:currentColor" class="ColorScheme-Text" d="M 12.000001,4 C 10.733341,4 9.6438613,4.557 8.9691413,5.4004 8.2944213,6.24378 8.0000013,7.31482 8.0000013,8.4 l 0,6.6 1.9999997,0 0,-6.6 c 0,-0.71482 0.20558,-1.34378 0.53086,-1.7504 C 10.856141,6.243 11.266661,6 12.000001,6 c 0.73334,0 1.14386,0.243 1.46914,0.6496 0.32528,0.40662 0.53086,1.03558 0.53086,1.7504 l 0,6.6 2,0 0,-6.6 c 0,-1.08518 -0.29442,-2.15622 -0.96914,-2.9996 C 14.356141,4.557 13.266661,4 12.000001,4 Z"/>
 <path style="fill:currentColor" class="ColorScheme-Text" d="M 9.3587317,9.0039062 C 7.4329303,8.9164502 6.1006111,10.485836 6.0054515,12.185547 5.9560485,13.067973 6.2402372,13.985452 6.947647,14.724609 L 12,20 17.052354,14.724609 c 0.707406,-0.739148 0.991594,-1.656622 0.942195,-2.539062 -0.09516,-1.6997 -1.427479,-3.2691008 -3.35328,-3.1816408 C 13.545143,9.0534862 12.549122,9.6839612 12,10.675781 11.450875,9.6839527 10.454848,9.0534854 9.3587317,9.0039062 Z M 11.001234,12 12,12 l 0.998767,0 0,2 -0.477926,0 0.977309,2 L 12,16 l -1.498149,0 0.977309,-2 -0.477926,0 0,-2 z"/>
</svg>
